!!!OTL: HOERT IHR HERRN UND LASST EUCH SAGEN
!!!ARE: Europa, Mitteleuropa, Deutschland, Sueddeutschland
!!!SCT: E1581
!!!YEM: Copyright 1995, estate of Helmut Schaffrath.
**kern
*ICvox
*Ivox
*M3/4
*k[b-e-a-]
*E-:
=1
{2e-
4g
=2
2b-
4g
=3
2ee-
4b-
=4
2cc
4b-}
=5
{2ee-
4b-
=6
2cc
4b-
=7
4b-
4a-
4g
=8
4g
4f
4r}
=9
{2b-
4g
=10
2cc
4b-
=11
4.b-
8a-
4g
=12
2f
4r}
=13
{2ee-
4b-
=14
2cc
8b-
8a-
=15
2g
4f
=16
2e-
4r}
=17
{2e-
4g
=18
2b-
4g
=19
2ee-
4b-
=20
2cc
4b-}
=21
{2ee-
4b-
=22
2cc
4b-
=23
4b-
4a-
4g
=24
4g
4f
4r}
=25
{2b-
4g
=26
2cc
4b-
=27
4.b-
8a-
4g
=28
2f
4r}
=29
{2ee-
4b-
=30
2cc
8b-
8a-
=31
2g
4f
=32
2e-
4r}
==
!!!AGN: Staende - Lied, Nachtwaechter
!!!ONB: ESAC (Essen Associative Code) Database: ERK3
!!!AMT: simple triple
!!!AIN: vox
!!!EED: Helmut Schaffrath
!!!EEV: 1.0
*-
